X:1
T:D Major Walter Janes, 1803
T:Isaac Watts, 1719 (Psalm 118, Part 5)       66. 86.  (S. M.)
T:Hosanna
T:Transcribed from The Massachusetts Harmony, 1803.
%%score [ 1 2 3 4 ]
L:1/8
Q:1/4=120
M:2/4
K:D
V:1 treble nm="Tr." snm="Tr."
V:2 treble nm="C." snm="C."
V:3 treble-8 nm="T." snm="T."
V:4 bass nm="B." snm="B."
V:1
 A2 AF | B2 A2 | A3 A | d2 c2 | B2 ^G2 | A4 | z4 | z4 | z4 | d2 AF | D3 d | B2 B2 | A3 d | cB A^G | %14
w: 1.~This is the|glo- rious|day That|our Re-|dee- mer|made;||||Let us re-|joice, and|sing, and|pray; Let|all the church be|
w: 2.~The work, O|Lord, is|thine And|won- drous|in our|eyes;||||This day de-|clares it|all di-|vine, This|day did Je- sus|
 A3 A | AB AA | A4 | z2 F2 |: A2 d>c | B3 d | ed cB | A2 G2 | F2 G2 | A4 | F2 FG | A3 A | A2 A2 | %27
w: glad, Let|all the church be|glad.|Ho-|san- na *|to the|King * of *|Da- vid's|ro- yal|blood;|Bless him, ye|saints, he|comes to|
w: rise, This|day did Je- sus|rise.|We|bless thine *|ho- ly|word, * Which *|all this|grace dis-|plays;|And of- fer|on thine|al- tar,|
 A3 A | dc BB | A3 z | z4 | z4 | A2 AA | A3 d | c2 c2 | c3 c | dB A2 |1 A2 A2- ||1 A2 F2 :|2 %39
w: being Sal-|va- tion from your|God.|||Bless him, ye|saints, he|comes to|bring Sal-|va- tion from|your God.|* Bless|
w: Lord, Our|sac- ri- fice of|praise.|||And of- fer|on thine|al- tar,|Lord, Our|sac- ri- fice|of praise.|* We|
 A2 A2- || A4 |] %41
w: your God.||
w: of praise.||
V:2
 F2 FF | DG E2 | F3 F | D2 E2 | F2 E2 | E4 | z4 | z4 | A2 AF | D4- | D3 F | E2 E>D | C3 B, | %13
w: ||||||||Let us re-|joice,~|_ _|||
w: ||||||||This day de-|clares~|_ _|||
 CD EE | E3 F | DG EE | F4 | z2 D2 |: F2 F2 | G3 F | E2 E2 | F2 ED | AF GE | F4 | D2 DE | F3 F | %26
w: |||||||||||||
w: |||||||||||||
 F2 F2 | F3 F | DA GG | F3 z | z4 | z4 | D2 DE | F3 G | A2 A2 | A3 A | DG E2 |1 E2 F2- ||1 %38
w: ||||||||||||
w: ||||||||||||
 F2 D2 :|2 E2 F2- || F4 |] %41
w: |||
w: |||
V:3
 D2 FA | B2 c2 | d3 D | F2 A2 | d2 B2 | A4 | z4 | d2 AF | D4- | D4- | D3 A | G2 G2 | F3 B | Ad cB | %14
w: 1.~This is the|glo- rious|day That|our Re-|dee- mer|made;||Let us re-|joice,~|_|* and|sing, and|pray; Let|all the church be|
w: 2.~The work, O|Lord, is|thine And|won- drous|in our|eyes;||This day de-|clares~|_|* it|all di-|vine, This|day did Je- sus|
 A3 A | Ad cc | d4 | z2 AB/c/ |: d2 d2 | B3 B | c2 AB/c/ | d2 B2 | A2 G2 | A4 | z4 | z4 | F2 FA | %27
w: glad, Let|all the church be|glad.|Ho- * *|san- na|to the|King of * *|Da- vid's|ro- yal|blood;|||Bless him, ye|
w: rise, This|day did Je- sus|rise.|We * *|bless thine|ho- ly|word, Which * *|all this|grace dis-|plays;|||And of- fer|
 A3 A | d2 d2 | d3 d | ed cB | A3 z | d2 dc | d3 d | e2 e2 | e3 f | dd c2 |1 c2 d2- ||1 %38
w: saints, he|comes to|bring Sal-|va- tion from your|God.|Bless him, ye|saints, he|comes to|bring Sal-|va- tion from|your God.|
w: on thine|al- tar,|Lord, Our|sac- ri- fice of|praise.|And of- fer|on thine|al- tar,|Lord, Our|sac- ri- fice|of praise.|
 d2 AB/c/ :|2 c2 d2- || d4 |] %41
w: * Bless * *|your God.||
w: * We * *|of praise.||
V:4
 D,2 D,F, | G,2 A,2 | D,3 D, | B,,2 A,,2 | B,,2 E,2 | A,,4 | D,2 D,D, | D,4- | D,4- | D,4- | %10
w: ||||||Let us re-|joice,~|_||
w: ||||||This day de-|clares~|_||
 D,3 D, | E,2 E,2 | F,3 G, | A,B, E,E, | A,,3 D, | F,G, A,A,, | D,4 | z2 D,2 |: D,2 D,2 | E,3 B, | %20
w: ||||||||||
w: ||||||||||
 A,2 A,,2 | D,2 E,2 | F,2 E,2 | D,4 | z4 | z4 | D,2 D,D, | D,3 D, | D,2 D,2 | D,3 D, | C,D, E,E, | %31
w: |||||||||||
w: |||||||||||
 A,,3 z | D,2 D,A,, | D,3 D, | A,2 A,2 | A,3 F, | B,G, A,2 |1 A,,2 D,2- ||1 D,2 D,2 :|2 %39
w: ||||||||
w: ||||||||
 A,,2 D,2- || D,4 |] %41
w: ||
w: ||

